!!!COM: Bach, Johann Sebastian
!!!OTL: Sinfonia No. 4; in d minor; BWV 790
!! Three-part sinfonia
!! Bach-Gesellschaft edition, pp.23-24
!! Performance duration: 2:05; performance tempo: 44.2 quarter-notes per minute.
!! (Andras Schiff, piano, "Two-Part Inventions BWV 772a-786; Three-part
!! Inventions BWV 787-801" Decca 411 974-2)
**kern	**kern	**kern
*staff2	*staff1	*staff1
*M4/4	*M4/4	*M4/4
*MM44.2	*MM44.2	*MM44.2
*d:	*d:	*d:
=1	=1	=1
8D	1r	16r
.	.	16dd
8E	.	16cc#
.	.	16dd
8F	.	8a
8D	.	[8ff
8A	.	16ff]
.	.	16ee
8Bn	.	16dd
.	.	16ee
8c#	.	8a
8A	.	[8gg
=2	=2	=2
[4d	16r	16gg]
.	16a	16ff
.	16g#	16ee
.	16a	16dd
16d]	8e	[4aa
16c	.	.
16Bn	[8cc	.
16A	.	.
4e	16cc]	16aa]
.	16bn	16gg#
.	16a	16ff#
.	16b	16gg#
4E	8e	8.gg#
.	[8dd	.
.	.	16aa
=3	=3	=3
4AA	16dd]	[4aa
.	16cc	.
.	16bn	.
.	16cc	.
4r	[4ff	16aa]
.	.	16dd
.	.	16cc#
.	.	16dd
2r	16ff]	[4gg
.	16b	.
.	16a	.
.	16b	.
.	[4ee	16gg]
.	.	16cc#
.	.	16bn
.	.	16cc#
=4	=4	=4
16r	8ee]	4.ff
16D	.	.
16C#	8a	.
16D	.	.
8AA	16dd	.
.	16ee	.
[8F	16dd	8aa
.	16ccn	.
16F]	8.bn	[4gg
16E	.	.
16D	.	.
16E	16cc#	.
8AA	4cc#M	16gg]
.	.	16ff
[8G	.	16ee
.	.	16ff
=5	=5	=5
16G]	16dd	4dd
16F	16dd	.
16E	16cc#	.
16D	16dd	.
[4B-	[4g	16r
.	.	16bb-
.	.	16aa
.	.	16bb-
16B-]	16g]	[4ee
16E	16ccn	.
16D	16b-	.
16C	16cc	.
[4A	[4f	16ee]
.	.	16aa
.	.	16gg
.	.	16aa
=6	=6	=6
16A]	16f]	[4dd
16D	16b-	.
16C	16a	.
16D	16cc	.
8GG	[4b-	16dd]
.	.	16dd
[8F	.	16ee
.	.	16ff
16F]	16b-]	[4gg
16E	16cc	.
16D	16b-	.
16E	16a	.
8C	16b-	16gg]
.	16a	16ff
[8B-	16g	16ee
.	16f	16dd
=7	=7	=7
16B-]	8e	[2cc
16A	.	.
16G	[8b-	.
16A	.	.
8F	16b-]	.
.	16a	.
8e-	16g	.
.	16a	.
8d	[2f	16cc]
.	.	16b-
8c	.	16a
.	.	16b-
8B-	.	16g
.	.	16dd
8A	.	16cc
.	.	16dd
=8	=8	=8
8B-	4f]	16g
.	.	16b-
8G	.	16a
.	.	[16b-
8c	4e	16b-]
.	.	16cc
8C	.	16b-
.	.	16cc
8FF	16r	4a
.	16f	.
8GG	16e	.
.	16f	.
8AA	8c	8r
8FF	[8a	[8ff
=9	=9	=9
8C	16a]	16ff]
.	16g	8.ee
8D	16f	.
.	16g	.
8E	8c	8r
8C	[8b-	[8gg
8F	16b-]	16gg]
.	8.a	16ff
8G	.	16ee
.	.	16ff
8A	8r	8cc
8F	[8ff	[8aa
=10	=10	=10
8c	16ff]	16aa]
.	8.ee	16gg
8d	.	16ff
.	.	16gg
8e	8r	8cc
8c	[8gg	[8bb-
16f	16gg]	16bb-]
16c	[8.ff	[8.aa
16B-	.	.
16c	.	.
8F	16ff]	4aa_
.	16ee	.
[8f	16dd	.
.	16cc	.
=11	=11	=11
16f]	[4b-	16aa]
16B-	.	16dd
16A	.	16cc#
16B-	.	16dd
8E	16b-]	[4gg
.	16a	.
[8e	16b-	.
.	16g	.
16e]	4cc#	16gg]
16A	.	16ff
16G	.	16ee
16A	.	16gg
8D	16dd	[4ff
.	16b-	.
[8d	16a	.
.	16b-	.
=12	=12	=12
8d]	8g#	16ff]
.	.	16ee
[8c	8a	16dd
.	.	16ee
16c]	8f#	8a
16Bn	.	.
16A	8fn	[8dd
16B	.	.
8G#	4e	16dd]
.	.	16cc
[8A	.	16bn
.	.	16cc
16A]	8d#	8f#
16G	.	.
16F#	8dn	[8b
16G	.	.
=13	=13	=13
8A	8c#	16b]
.	.	16a
8D#	8cn	16g#
.	.	[16a
8E	4Bn	16a]
.	.	16g#
8EE	.	16f#
.	.	16g#
8AA	4A	16r
.	.	16a
8BBn	.	16g#
.	.	16a
8C	4r	8e
8AA	.	[8cc
=14	=14	=14
8E	2r	16cc]
.	.	16bn
8F#	.	16a
.	.	16b
8G#	.	8e
8E	.	[8dd
[4A	16r	16dd]
.	16e	16cc
.	16d#	16b
.	16e	16cc
16A]	8A	[4ee-
16Gn	.	.
16F#	[8g	.
16G	.	.
=15	=15	=15
8D	16g]	16ee-]
.	16f#	8.dd
8C	16en	.
.	16f#	.
8BB-	8d	8r
8AA	[8cc	8ff#
16GG	16cc]	[2gg
16G	16b-	.
16F#	16a	.
16G	16b-	.
8D	16cc	.
.	16dd	.
[8B-	16cc	.
.	16dd	.
=16	=16	=16
16B-]	[4ee-	16gg]
16A	.	16ff#
16G	.	16bb-
16A	.	16aa
8D	16ee-]	4ff#
.	16dd	.
[8c	16ee-	.
.	16cc	.
16c]	16dd	16gg
16B-	16r	16dd
16A	8r	16cc
16B-	.	16dd
16c	4r	8g
16B-	.	.
16A	.	[8ffn
16G	.	.
=17	=17	=17
8c	2r	16ff]
.	.	16ee
8d	.	16dd
.	.	16ee
8e	.	8cc
8c	.	[8bb-
4F	16r	16bb-]
.	16f	16aa
.	16e	16gg
.	16f	16bb-
8r	8c	16aa
.	.	16gg
8F	[8a	16ff
.	.	16ee
=18	=18	=18
8B-	16a]	[4dd
.	16g	.
8A	16f	.
.	16g	.
8G	8B-	16dd]
.	.	16ff
8B-	[8g	16ee
.	.	16dd
8A	16g]	[4cc#
.	16f	.
8G	16e	.
.	16f	.
8F	8A	16cc#]
.	.	16a
8D	[8f	16dd
.	.	16ccn
=19	=19	=19
8G	16f]	[2b-
.	16e	.
8F	16d	.
.	16f	.
8G	16e-	.
.	16d	.
8En	16c#	.
.	16d	.
8A	8c#	16b-]
.	.	16a
8Bn	8d	16g#
.	.	16bn
8c#	[4e-	16a
.	.	16gn
8A	.	16f
.	.	16g
=20	=20	=20
16d	8e-]	[4f
16D	.	.
16C#	8A	.
16D	.	.
8AA	[4d	16f]
.	.	16a
[8F	.	16g
.	.	16a
16F]	16d]	8b-
16E	16g	.
16D	16f	8bn
16E	16g	.
8AA	16e	8cc
.	16b-	.
[8G	16a	8cc#
.	16g	.
=21	=21	=21
16G]	16a	[2dd
16F#	16d	.
16E	[8cc	.
16F#	.	.
8D	16cc]	.
.	16b-	.
8c	16a	.
.	16b-	.
8B-	16a	4.dd]
.	16g	.
8A	16f#	.
.	16g	.
16B-	8d	.
16A	.	.
16G	[8b-	8dd
16A	.	.
=22	=22	=22
16G	16b-]	8cc#
16F#	16a	.
16E	16g	8ccn
16F#	16a	.
16G	8d	8bn
16Fn	.	.
16E-	[8g	8b-
16D	.	.
8C#	16g]	4a
.	16f	.
[8D	16e	.
.	16f	.
16D]	8Bn	8g#
16C#	.	.
16BBn	[8e	8gn
16C#	.	.
=23	=23	=23
8D	16e]	8f#
.	16d	.
8GG#	16c#	8fn
.	[16d	.
4AA	16d]	4e
.	16c#	.
.	16Bn	.
.	16c#	.
2DD;	2d;	2d;
====	====	====
*-	*-	*-
